X: 6
T:Damson Bridge
T:The Big Ship
M:2/4
L:1/16
Q:80
Z:Brian Martin <brian_martin12345@yahoo.com> Winterbourn Downs Morris  (rcvd Jan 2003)
K:G
D2 | GFGA BABc | dedc B2G2 | c2cB AFA2 | dedc B2D2 | GFGA BABc | dedc B2G2 | cdcB AGFA | G2B2G2 |]
d2 | g2gf efge | dedc B2G2 | c2cB A2A2 | dedc B2d2 | g2gf efge | dedc B2G2 | cdcB AGFA | G2B2G2 ||

